X:4233
L:1/16
M:2/4
K:C
 c2 | BcdB G2B2 | cdef2 g2e2 | f2d2e2c2 | (dcde) d2c2 | BcdB G2B2 | cdef g2e2 | dedc B2A2 | G6 :: 
 g2 | e2^c2A2c2 | (e^cdc) d2f2 | d2B2G2B2 | (=cBcB c2).e2 | (fgfg a2).g2 | (efef g2).e2 | 
 d2fd c2B2 | c6 :|

